X:1
T:Marching On to Victory
T:Marching On to Victory
T:Isaac Hickman Meredith
T:Harriet H. Pierson, 1910
T:Public Domain Courtesy of the Cyber Hymnal™
T:Public Domain Courtesy of the Cyber Hymnal™
C:Isaac Hickman Meredith
Z:Public Domain
Z:Courtesy of the Cyber Hymnal™
%%score ( 1 2 ) ( 3 4 )
L:1/8
Q:1/4=105
M:4/4
K:C
V:1 treble 
V:2 treble 
V:3 bass 
V:4 bass 
V:1
 E>F | [CEG]2 [CEA]2 [CEB]2 [CEc]2 | [DFc]2 B4 [DF]2 B>d | [FA]2 [FA]2 [FB]2 [FB]2 | %4
w: 1.~We are|march- ing forth to|bat- tle, With our ban-|ners all un- furled;|
w: 2.~For- ward|now, oh, loy- al|le- gion, To the fierc-|est of the fight,|
w: 3.~Not for|earth- ly thrones or|king- doms, Not for earth-|ly wealth or fame,|
 [EG]6 [EG]>[EG] | [FA]2 [FA]2 [GB]2 [GB]2 | [Gc]2 [Gc]4 [Gc]>[Ge] | [^Fd]2 [FA]2 [Fd]2 [Fe]2 | %8
w: We have joined|the Chris- tian ar-|my For the conq-|uest of the world;|
w: Let us nev-|er fear nor fal-|ter In the bat-|tle for the right;|
w: Do we wage|the Chris- tian war-|fare In the Lord’s|all con- quering name;|
 d6 ([FA]2 [FG]2) E>F | [CEG]2 [CEA]2 [CEB]2 [CEc]2 | [DFc]2 B4 [DF]2 B>d | %11
w: And the * sign by|* which we con-|quer O- ver each and|
w: For the * cross of|* Christ moves on-|ward In a cause that|
w: But to * res- cue|* souls in per-|il From the power of|
 [FA]2 [FA]2 [FB]2 [FB]2 | [EG]6 G>G | [EGc]2 [EGc]2 [EGc]2 [EGc]2 | [CFc]2 [CFc]4 B>A | %15
w: ev- ery foe, Is|the cross of|Christ up- lift- ed|By the van- guard|
w: can- not fail, And|the power of|Christ, our lead- er,|Is a power that|
w: death and sin, And|the glo- ry|all un- fad- ing|Of a heav’n- ly|
 [CEG]2 [EGc]2 [DFc]2 [DFB]2 | [CEc]6 ||"^Refrain" E>F | (z2 [EG]2) E>G x2 | %19
w: as we go. *||||
w: must pre- vail. March-|ing|on, ev-|* er on,|
w: crown to win. *||||
 z2 [FA]2 [FA]>[FA] x2 | [EG]2 [EG]2 [Gc]2 [^Fc]2 | [Gd]6 c>d | (z2 [Ge]2) d>c x2 | %23
w: ||||
w: * Where the|* cross of Christ|we see; March-|* ing on,|
w: ||||
 z2 !fermata![Ac]2 [GB]>[FA] x2 | !>![EG]2 !>![Gc]2 !>![Fc]2 !>![FB]2 | [Ec]6 |] %26
w: |||
w: * ev- er|* on, March- ing|on|
w: |||
V:2
 x2 | x8 | x2 ([DF]2 F2) x4 | x8 | x8 | x8 | x8 | x8 | [FB]2 x10 | x8 | x2 ([DF]2 F2) x4 | x8 | %12
 x6 G>G | x8 | x6 [C^D]2 | x8 | x6 || x2 | G4- E>E x2 | A4- F>F x2 | x8 | x8 | e4 G>G x2 | %23
 c4- A>A x2 | x8 | x6 |] %26
V:3
 z2 | [C,G,]2 [A,,G,]2 [C,G,]2 [A,,G,]2 | [D,G,]2 ([G,,G,]2 [D,G,]2) [G,,G,]2 x2 | %3
w: |||
 [B,,G,]2 [G,,G,]2 [D,G,]2 [G,,G,]2 | ([C,G,]2 [G,,G,]2 [C,G,]2) [C,C]2 | %5
w: ||
 [F,C]2 [F,C]2 [F,D]2 [F,D]2 | [E,C]2 [E,C]4 [E,C]>[C,C] | [D,C]2 [D,C]2 [D,A,]2 [D,C]2 | %8
w: |||
 (G,2 C2 B,2) z2 x4 | [C,G,]2 [G,,G,]2 [C,G,]2 [G,,G,]2 | [D,G,]2 ([G,,G,]2 [D,G,]2) [G,,G,]2 x2 | %11
w: |||
 [B,,G,]2 [G,,G,]2 [D,G,]2 [G,,G,]2 | ([C,G,]2 [G,,G,]2 [C,G,]2) G,>G, | %13
w: ||
 [C,C]2 [C,C]2 [_B,,_B,]2 [B,,B,]2 | [A,,A,]2 [A,,A,]4 [^F,,^F,]2 | %15
w: ||
 [G,,G,]2 [G,,G,]2 [G,,G,]2 [G,,G,]2 | [C,G,]6 || z2 | z2 [C,C]>[C,C] [C,C]2 z2 | %19
w: |||March- ing on,|
 z2 [F,C]>[F,C] [F,C]2 [F,C]>[F,C] | [C,C]2 [C,C]2 [E,C]2 [D,D]2 | [E,G,]6 z2 | z2 C>C C2 z2 | %23
w: ev- er on, * *|||March- ing on,|
 z2 [F,C]>[F,C] !fermata![F,C]2 [F,C]>[F,C] | [G,C]2 [G,E]2 [G,D]2 [G,D]2 | [C,C]6 |] %26
w: ev- er on, * *|||
V:4
 x2 | x8 | x10 | x8 | x8 | x8 | x8 | x8 | x12 | x8 | x10 | x8 | x8 | x8 | x8 | x8 | x6 || x2 | x8 | %19
 x8 | x8 | x8 | x2 C>C C2 x2 | x8 | x8 | x6 |] %26

